X: 23190
T: Le Schottische Pistou
R: barndance
M: 4/4
K: Gmajor
|:(3DEF|
G2 G>E D2 B2|A>GF<E D2 d2|B>AG>F E2 A2|(3GAG (3FGF (3EFE (3DEF|
G2 (3GFE D2 B2|A>GF>E D>dc>d|B2 G>F E2 A2|G2 F2 G2:|
|:B>c|
d2 BG E2 e2|c>BA<G F2 d>c|B2 G>F E2 A2|G2 F2 E2 D2|
[1 d>cB>A G>e^d>e|c>BA>G F>Ad>c|B>AG>F E2 A2|G2 F2 G>A:|
[2 G2 (3GFE D2 B2|A>GF>E D>dc>d|B2 G>F E2 A2|G2 F2 G2||

